svgs/sharp-regular/brackets-curly.svg

<svg xmlns="http://www.w3.org/2000/svg" viewBox="0 0 576 512"><!--! Font Awesome Pro 6.6.0 by @fontawesome - https://fontawesome.com License - https://fontawesome.com/license (Commercial License) Copyright 2024 Fonticons, Inc. --><path d="M64 32l24 0 112 0 24 0 0 48-24 0-88 0 0 112 0 9.9-7 7-47 47 47 47 7 7 0 9.9 0 112 88 0 24 0 0 48-24 0L88 480l-24 0 0-24 0-126.1L7 273l-7-7 0-19.9 7-7 57-57L64 56l0-24zm448 0l0 24 0 126.1 57 57 7 7 0 19.9-7 7-57 57L512 456l0 24-24 0-112 0-24 0 0-48 24 0 88 0 0-112 0-9.9 7-7 47-47-47-47-7-7 0-9.9 0-112-88 0-24 0 0-48 24 0 112 0 24 0z"/></svg>

<svg xmlns="http://www.w3.org/2000/svg" viewBox="0 0 576 512"><!--! Font Awesome Pro 6.4.0 by @fontawesome - https://fontawesome.com License - https://fontawesome.com/license (Commercial License) Copyright 2023 Fonticons, Inc. --><path d="M64 32H88 200h24V80H200 112V192v9.9l-7 7-47 47 47 47 7 7V320 432h88 24v48H200 88 64V456 329.9L7 273l-7-7V246.1l7-7 57-57V56 32zm448 0V56 182.1l57 57 7 7v19.9l-7 7-57 57V456v24H488 376 352V432h24 88V320v-9.9l7-7 47-47-47-47-7-7V192 80H376 352V32h24H488h24z"/></svg>
